X: 21412
Q: "Very slow."
M: 3/4
L: 1/16
K: F
c2(de) f4 e4 | d3c d4 (cA3) | c2(de) f4 (e2fg) |(fe)(dc) d4 |{e}\
f3e d4 (d2c2) | B2(AG) A4 D4 | F3G A4 (d2c2) | B2(AG) F8 |]


